packages/calcite-ui-icons/icons/transfer-16.svg

<?xml version="1.0" encoding="UTF-8"?><svg id="icons" xmlns="http://www.w3.org/2000/svg" viewBox="0 0 16 16"><rect width="16" height="16" style="fill:none;"/><path d="M5.25476,4.12909c.39746-.42877.64526-.99872.64526-1.62909C5.90002,1.1767,4.83075.09998,3.50482.09998S1.09998,1.1767,1.09998,2.5c0,.62988.24963,1.1994.6488,1.62799C.73871,4.4491.002,5.38464.002,6.5v2.5h6.998v-2.5c0-1.11407-.73706-2.04871-1.74524-2.37091ZM3.5,1c.82715,0,1.5.67285,1.5,1.5s-.67285,1.5-1.5,1.5-1.5-.67285-1.5-1.5.67285-1.5,1.5-1.5ZM6,8H1v-1.5c0-.82715.67285-1.5,1.5-1.5h2c.82715,0,1.5.67285,1.5,1.5v1.5ZM14.25476,11.12909c.39746-.42877.64526-.99872.64526-1.62909,0-1.3233-1.06927-2.40002-2.3952-2.40002s-2.40485,1.07672-2.40485,2.40002c0,.62988.24963,1.1994.6488,1.62799-1.01007.32111-1.74878,1.25665-1.74878,2.37201v2.5h7v-2.5c0-1.11407-.73706-2.04871-1.74524-2.37091ZM12.50482,8.00482c.82446,0,1.49518.67065,1.49518,1.49518,0,.82446-.67072,1.49518-1.49518,1.49518-.82452,0-1.49518-.67072-1.49518-1.49518,0-.82452.67065-1.49518,1.49518-1.49518ZM15,15h-5v-1.5c0-.82715.67285-1.5,1.5-1.5h2c.82715,0,1.5.67285,1.5,1.5v1.5ZM8.2085,13.5l-2.50146,2.5-.70703-.70703,1.29401-1.29297h-2.29401c-1.10303,0-2-.89746-2-2v-2h1v2c0,.55176.44873,1,1,1h2.29401l-1.29401-1.29297.70703-.70703,2.50146,2.5Z"/></svg>

<svg xmlns="http://www.w3.org/2000/svg" viewBox="0 0 16 16"><path fill="none" d="M0 0h16v16H0z"/><path d="M5.255 4.13A2.397 2.397 0 0 0 3.505.1 2.405 2.405 0 0 0 1.1 2.5c0 .63.25 1.2.649 1.628A2.493 2.493 0 0 0 .002 6.5V9H7V6.5a2.495 2.495 0 0 0-1.745-2.37zM3.5 1C4.327 1 5 1.673 5 2.5S4.327 4 3.5 4 2 3.327 2 2.5 2.673 1 3.5 1zM6 8H1V6.5C1 5.673 1.673 5 2.5 5h2C5.327 5 6 5.673 6 6.5V8zm8.255 3.13a2.397 2.397 0 0 0-1.75-4.03A2.405 2.405 0 0 0 10.1 9.5c0 .63.25 1.2.649 1.628A2.495 2.495 0 0 0 9 13.5V16h7v-2.5a2.495 2.495 0 0 0-1.745-2.37zm-1.75-3.125c.824 0 1.495.67 1.495 1.495a1.496 1.496 0 1 1-1.495-1.495zM15 15h-5v-1.5c0-.827.673-1.5 1.5-1.5h2c.827 0 1.5.673 1.5 1.5V15zm-6.791-1.5L5.707 16 5 15.293 6.294 14H4c-1.103 0-2-.897-2-2v-2h1v2c0 .552.449 1 1 1h2.294L5 11.707 5.707 11l2.502 2.5z"/></svg>
